ix/home-hashtag_bulk.svg

<svg viewBox="0 0 24 24" fill="none" xmlns="http://www.w3.org/2000/svg" height="1em" width="1em">
  <path opacity="0.4" d="M20.03 6.82018L14.28 2.79018C12.71 1.69018 10.31 1.75018 8.8 2.92018L3.79 6.83018C2.78 7.61018 2 9.21018 2 10.4702V17.3702C2 19.9202 4.07 22.0002 6.61 22.0002H17.38C19.92 22.0002 21.99 19.9302 21.99 17.3802V10.6002C22 9.25018 21.13 7.59018 20.03 6.82018Z" fill="#292D32"/>
  <path d="M13.3994 8.51025H10.5994C8.67938 8.51025 7.10938 10.0703 7.10938 12.0003V14.7903C7.10938 16.7103 8.67938 18.2803 10.5994 18.2803H13.3894C15.3094 18.2803 16.8794 16.7203 16.8794 14.7903V12.0003C16.8794 10.0803 15.3194 8.51025 13.3994 8.51025ZM15.4894 12.0003V12.7003H12.6994V9.91025H13.3994C14.5494 9.91025 15.4894 10.8503 15.4894 12.0003ZM10.5994 9.91025H11.2994V12.7003H8.50938V12.0003C8.50938 10.8503 9.44938 9.91025 10.5994 9.91025ZM8.50938 14.7903V14.0903H11.2994V16.8803H10.5994C9.44938 16.8803 8.50938 15.9403 8.50938 14.7903ZM13.3994 16.8803H12.6994V14.0903H15.4894V14.7903C15.4894 15.9403 14.5494 16.8803 13.3994 16.8803Z" fill="#292D32"/>
</svg>

<svg viewBox="0 0 24 24" fill="none" xmlns="http://www.w3.org/2000/svg" height="1em" width="1em">
  <path opacity=".4" d="m20.03 6.82-5.75-4.03c-1.57-1.1-3.97-1.04-5.48.13L3.79 6.83C2.78 7.61 2 9.21 2 10.47v6.9C2 19.92 4.07 22 6.61 22h10.77a4.62 4.62 0 0 0 4.61-4.62V10.6c.01-1.35-.86-3.01-1.96-3.78Z" fill="#292D32"/>
  <path d="M13.4 8.51h-2.8c-1.92 0-3.49 1.56-3.49 3.49v2.79a3.5 3.5 0 0 0 3.49 3.49h2.79c1.92 0 3.49-1.56 3.49-3.49V12c0-1.92-1.56-3.49-3.48-3.49ZM15.49 12v.7H12.7V9.91h.7c1.15 0 2.09.94 2.09 2.09ZM10.6 9.91h.7v2.79H8.51V12c0-1.15.94-2.09 2.09-2.09Zm-2.09 4.88v-.7h2.79v2.79h-.7c-1.15 0-2.09-.94-2.09-2.09Zm4.89 2.09h-.7v-2.79h2.79v.7c0 1.15-.94 2.09-2.09 2.09Z" fill="#292D32"/>
</svg>
